flaticon/essential/compact-disc-1.svg

<svg xmlns="http://www.w3.org/2000/svg" width="32" height="32" viewBox="0 0 24 24">
    <path d="M 12 0 C 5.382812 0 0 5.382812 0 12 C 0 18.617188 5.382812 24 12 24 C 18.617188 24 24 18.617188 24 12 C 24 5.382812 18.617188 0 12 0 Z M 12 23.199219 C 5.824219 23.199219 0.800781 18.175781 0.800781 12 C 0.800781 5.824219 5.824219 0.800781 12 0.800781 C 18.175781 0.800781 23.199219 5.824219 23.199219 12 C 23.199219 18.175781 18.175781 23.199219 12 23.199219 Z M 12 23.199219"/>
    <path d="M9.265625 3.382812C9.480469 3.332031 9.613281 3.117188 9.5625 2.902344 9.511719 2.6875 9.292969 2.554688 9.078125 2.605469 7.503906 2.984375 6.070312 3.789062 4.929688 4.929688 3.789062 6.070312 2.984375 7.503906 2.605469 9.078125 2.554688 9.292969 2.6875 9.507812 2.902344 9.5625 2.933594 9.570312 2.964844 9.574219 2.996094 9.574219 3.175781 9.574219 3.339844 9.449219 3.382812 9.265625 3.726562 7.835938 4.457031 6.53125 5.496094 5.492188 6.53125 4.457031 7.835938 3.726562 9.265625 3.382812zM21.097656 14.4375C20.882812 14.386719 20.667969 14.519531 20.617188 14.734375 20.273438 16.164062 19.542969 17.46875 18.503906 18.503906 17.46875 19.542969 16.164062 20.273438 14.734375 20.617188 14.519531 20.667969 14.386719 20.882812 14.4375 21.097656 14.480469 21.28125 14.644531 21.40625 14.828125 21.40625 14.859375 21.40625 14.890625 21.402344 14.921875 21.394531 16.496094 21.015625 17.929688 20.210938 19.070312 19.070312 20.210938 17.929688 21.015625 16.496094 21.394531 14.921875 21.445312 14.707031 21.3125 14.492188 21.097656 14.4375zM21.097656 14.4375"/>
    <path d="M9.78125 5.3125C9.996094 5.265625 10.128906 5.050781 10.078125 4.835938 10.03125 4.621094 9.8125 4.484375 9.597656 4.535156 8.363281 4.824219 7.238281 5.449219 6.34375 6.34375 5.449219 7.238281 4.824219 8.363281 4.535156 9.601562 4.484375 9.816406 4.617188 10.03125 4.835938 10.078125 4.863281 10.085938 4.894531 10.089844 4.925781 10.089844 5.105469 10.089844 5.269531 9.964844 5.3125 9.78125 5.570312 8.691406 6.121094 7.699219 6.910156 6.910156 7.699219 6.121094 8.691406 5.570312 9.78125 5.3125zM19.464844 14.402344C19.515625 14.1875 19.378906 13.96875 19.164062 13.921875 18.949219 13.867188 18.734375 14.003906 18.6875 14.21875 18.429688 15.308594 17.878906 16.300781 17.089844 17.089844 16.300781 17.878906 15.308594 18.433594 14.21875 18.6875 14.003906 18.734375 13.871094 18.949219 13.921875 19.164062 13.964844 19.351562 14.128906 19.476562 14.308594 19.476562 14.339844 19.476562 14.371094 19.472656 14.402344 19.464844 15.636719 19.175781 16.761719 18.550781 17.65625 17.65625 18.550781 16.761719 19.175781 15.636719 19.464844 14.402344zM19.464844 14.402344"/>
    <path d="M10.597656 6.769531C10.550781 6.554688 10.335938 6.417969 10.121094 6.464844 8.300781 6.863281 6.863281 8.300781 6.464844 10.121094 6.417969 10.335938 6.554688 10.550781 6.769531 10.597656 6.796875 10.605469 6.828125 10.605469 6.855469 10.605469 7.039062 10.605469 7.207031 10.480469 7.246094 10.292969 7.578125 8.773438 8.773438 7.578125 10.292969 7.246094 10.507812 7.199219 10.644531 6.984375 10.597656 6.769531zM17.535156 13.878906C17.582031 13.664062 17.445312 13.449219 17.230469 13.402344 17.015625 13.355469 16.800781 13.492188 16.753906 13.707031 16.421875 15.226562 15.226562 16.421875 13.707031 16.753906 13.492188 16.800781 13.355469 17.015625 13.402344 17.230469 13.441406 17.417969 13.609375 17.542969 13.792969 17.542969 13.820312 17.542969 13.847656 17.542969 13.878906 17.535156 15.699219 17.136719 17.136719 15.699219 17.535156 13.878906zM15.230469 12C15.230469 10.21875 13.78125 8.769531 12 8.769531 10.21875 8.769531 8.769531 10.21875 8.769531 12 8.769531 13.78125 10.21875 15.230469 12 15.230469 13.78125 15.230469 15.230469 13.78125 15.230469 12zM12 14.433594C10.660156 14.433594 9.566406 13.339844 9.566406 12 9.566406 10.660156 10.660156 9.566406 12 9.566406 13.339844 9.566406 14.433594 10.660156 14.433594 12 14.433594 13.339844 13.339844 14.433594 12 14.433594zM12 14.433594"/>
</svg>

<svg xmlns="http://www.w3.org/2000/svg" width="32" height="32" viewBox="0 0 24 24">
    <path d="M12 0C5.383 0 0 5.383 0 12s5.383 12 12 12 12-5.383 12-12S18.617 0 12 0zm0 23.2C5.824 23.2.8 18.175.8 12 .8 5.824 5.825.8 12 .8 18.176.8 23.2 5.825 23.2 12c0 6.176-5.024 11.2-11.2 11.2zm0 0"/>
    <path d="M9.266 3.383a.4.4 0 1 0-.188-.778 8.764 8.764 0 0 0-6.473 6.473.405.405 0 0 0 .391.496.4.4 0 0 0 .387-.308 7.963 7.963 0 0 1 5.883-5.883zm0 0M21.098 14.438a.4.4 0 0 0-.48.296 7.937 7.937 0 0 1-2.114 3.77 7.937 7.937 0 0 1-3.77 2.113.4.4 0 1 0 .188.778 8.764 8.764 0 0 0 6.473-6.473.405.405 0 0 0-.297-.485zm0 0"/>
    <path d="M9.781 5.313a.393.393 0 0 0 .297-.477.4.4 0 0 0-.48-.3 6.784 6.784 0 0 0-5.063 5.066c-.05.214.082.43.3.476a.4.4 0 0 0 .477-.297 6.01 6.01 0 0 1 1.598-2.87 6.01 6.01 0 0 1 2.871-1.598zm0 0M19.465 14.402a.4.4 0 0 0-.3-.48.39.39 0 0 0-.477.297 6.01 6.01 0 0 1-1.598 2.87 5.977 5.977 0 0 1-2.871 1.599.393.393 0 0 0-.297.476.399.399 0 0 0 .48.3 6.784 6.784 0 0 0 5.063-5.062zm0 0"/>
    <path d="M10.598 6.77a.401.401 0 0 0-.477-.305 4.81 4.81 0 0 0-3.656 3.656.401.401 0 0 0 .39.484.397.397 0 0 0 .391-.312 4 4 0 0 1 3.047-3.047.401.401 0 0 0 .305-.476zm0 0M17.535 13.879a.401.401 0 0 0-.305-.477.401.401 0 0 0-.476.305 4 4 0 0 1-3.047 3.047.401.401 0 0 0-.305.476c.04.188.207.313.391.313.027 0 .055 0 .086-.008a4.81 4.81 0 0 0 3.656-3.656zm0 0M15.23 12c0-1.781-1.449-3.23-3.23-3.23A3.234 3.234 0 0 0 8.77 12c0 1.781 1.449 3.23 3.23 3.23s3.23-1.449 3.23-3.23zM12 14.434A2.439 2.439 0 0 1 9.566 12 2.439 2.439 0 0 1 12 9.566 2.439 2.439 0 0 1 14.434 12 2.439 2.439 0 0 1 12 14.434zm0 0"/>
</svg>
